X:1
T:Title
%%score { 1 | 2 }
L:1/8
M:4/4
K:Ab
V:1 treble nm="Grand Piano"
V:2 bass 
V:1
 z4 z2[Q:1/4=96] [CE]2 | [Ec]3 [CEA] [CE][_C=D][=CE][_DF] | [CE]2 [CA]2 [Ec]3 [Ec] | %3
 [Ee]3 [Ec] [CEA][A,CE][A,EA][Ec] |[M:3/4] B6 |[M:1/4] E2 | %6
[M:4/4] [Ec]3 [CEA] [CE][_C=D][=CE][_DF] | [CE]2 [CA]2 [Ec]2 [_Ge]2 | [Fd]3 F FE c>B | %9
[M:3/4] [CA]6 |[M:1/4] [FA]2 |[M:4/4] [Fd]3 [Fd] [Fd]<[Fd] [FA][=EB] | [Ec]3 [DEB] [CEA]2 [Ec]2 | %13
 c3 c B=ABc |[M:3/4] d6 |[M:1/4] E2 |[M:4/4] [Ec]3 [CEA] [CE][_C=D][=CE][_DF] | %17
 [CE]2 [CA]2 [Ec]2 [_Ge]2 | [Fd]3 F FE c>B |[M:7/4] [CA]6 z2 z2 z4 |] %20
V:2
 z4 z2 [A,,A,]2 | [A,,A,]3 A,, [A,,A,][A,,A,][A,,A,][A,,A,] | [A,,A,]2 [A,,E,]2 [A,,A,]3 [A,,A,] | %3
 [A,C]3 [A,,A,] A,,A,,C,[A,,A,] |[M:3/4] [E,G,E]6 |[M:1/4] [E,G,]2 | %6
[M:4/4] [A,,A,]3 A,, [A,,A,][A,,A,][A,,A,][A,,A,] | [A,,A,]2 [A,,A,]2 [A,,A,]2 [C,A,]2 | %8
 [D,A,]3 [D,A,D] [E,G,D][E,G,D] [E,G,E]>[E,G,D] |[M:3/4] [A,,A,]6 |[M:1/4] [D,A,]2 | %11
[M:4/4] [D,A,]3 [D,A,] [D,A,]<[D,A,] [D,A,][D,A,] | [A,,A,]3 A,, A,,2 [A,,A,]2 | %13
 [E,A,E]3 [E,A,E] [E,G,E][E,_G,E][E,=G,E][E,A,E] |[M:3/4] [E,B,E]6 |[M:1/4] [E,G,]2 | %16
[M:4/4] [A,,A,]3 A,, [A,,A,][A,,A,][A,,A,][A,,A,] | [A,,A,]2 [A,,A,]2 [A,,A,]2 [C,A,]2 | %18
 [D,A,]3 [D,A,D] [E,G,D][E,G,D] [E,G,E]>[E,G,D] |[M:7/4] [A,,A,]6 z2 z2 z4 |] %20

